X:144
T:Argyll Is My Name
R:Jig
Z: www.tullochgorm.com/jigs.abc
M:6/8
L:1/8
K:G
D |\
"G" D2G       GFG | "Am" BAA A2c    | "G/B" BAG B/d3/2 D | "D"  DEF "G"G2  :|
d |\
"G" dBG       GBd | "Am" dcB c2e    | "G/B" dBG GBd      | "D7" dcBA2B  |
"C" cdc "G/B" cdc | "Am" DED c2d/c/ | "G/B" BAG B/d3/2 D | "D"  DEF "G"G2  :|
